X: 37409
T: Sleepy Sailors, The
R: jig
M: 6/8
K: Amixolydian
|:ceA edc|dcB cAF|EFG AB/c/d|c/B/AF FAB|
ceA edc|dcB cAF|EFG AB/c/d|cAA A2B:|
|:cef g2f|gaf ged|ecA fdA|ecA fdA|
cef g2f|gaf ged|ecA dcA|G2E EAB:|

